X: 10521
T: TWEED SIDE
Q: "Slow"
%R: waltz
B: "Edinburgh Repository of Music" v.1 p.52 #1
F: http://digital.nls.uk/special-collections-of-printed-music/pageturner.cfm?id=87776133
Z: 2015 John Chambers <jc:trillian.mit.edu>
M: 3/4
L: 1/8
K: D
f>e |\
d2 A2 B>c | ~d3 e f{a}g | (f2 {gf}e2) f>e | d2 A2 B>c |\
d2 ag fe | d4 f>e | d2 A2 B>c | dcdef{a}g |
f2 {gf}e2 d>e | f3/g//a// (gfed) | e3/f//g// A2 Tc2 | d4 :|\
|: f>g |\
a2 (gfed) | a2 (bagf) | (f2 {gf}e2) ~f>g | a2 (gfed) |
d>c (defg) | Ha3 ^a bc'/d'/ | {b}a2 g(fed) | a>f bagf |\
f2 {gf}e2 d>e | f3/g//a// gfed | {c'}ba/g/ f>d Te>d | d4 :|
